X: 65
T: Little Miss Etticoat
C: music: Mary Slade
C: words: Mother Goose
N: Copyright, 1916, by The Cable Company.
%R: air, waltz
B: "The Everyday Song Book", 1927
F: http://www.library.pitt.edu/happybirthday/pdf/The_Everyday_Song_Book.pdf
Z: 2017 John Chambers <jc:trillian.mit.edu>
M: 3/4
L: 1/4
K: C
% - - - - - - - - - - - - - - -
[| C E G | G A G | c G A | G E C |
w: Lit-tle Miss Et-ti-coat In a white pet-ti-coat,
%
F D E | C3 | C E G | G A G | c G A |
w: Has a red rose; Lit-tle Miss Et-ti-coat In a white
%
G E C/ C/ | F E D | E2 C | D D G | C3 |]
w: pet-ti-coat, The long-er she stands The short-er she grows.
% - - - - - - - - - - - - - - -
